svgs/smartschool.svg

<svg xmlns="http://www.w3.org/2000/svg" viewBox="0 0 192 192"><path d="M70.606 174.92c-11.163-2.004-17.554-3.802-22.512-6.331-4.628-2.361-4.652-.995.317-18.037l2.196-7.53 5.641 2.859c8.79 4.454 24.383 7.496 35.007 6.829 17.467-1.097 26.231-8.066 26.231-20.859 0-11.617-6.176-17.463-27.2-25.751-29.403-11.591-40.223-21.577-43.163-39.835-3.441-21.368 10.356-40.335 34.645-47.626 8.438-2.533 25.552-3.427 35.718-1.866 8.749 1.343 21.906 5.231 22.845 6.75.609.986-4.785 20.2-6.063 21.597-.447.488-3.276-.083-6.287-1.27-3.01-1.186-9.37-2.786-14.131-3.554-22.194-3.58-37.663 3.767-37.663 17.887 0 9.44 6.799 15.838 24.344 22.906 15.263 6.148 27.977 12.904 33.311 17.7 22.097 19.866 16.159 57.247-11.11 69.937-3.806 1.772-9.934 4.018-13.618 4.992-9.28 2.454-28.242 3.045-38.508 1.202Z"/></svg>

<svg
    xmlns="http://www.w3.org/2000/svg"
    viewBox="0 0 192 192"
    id="vector">
    <g id="group">
        <path
            id="path_6"
            d="M 70.606 174.92 C 59.443 172.916 53.052 171.118 48.094 168.589 C 43.466 166.228 43.442 167.594 48.411 150.552 L 50.607 143.022 L 56.248 145.881 C 65.038 150.335 80.631 153.377 91.255 152.71 C 108.722 151.613 117.486 144.644 117.486 131.851 C 117.486 120.234 111.31 114.388 90.286 106.1 C 60.883 94.509 50.063 84.523 47.123 66.265 C 43.682 44.897 57.479 25.93 81.768 18.639 C 90.206 16.106 107.32 15.212 117.486 16.773 C 126.235 18.116 139.392 22.004 140.331 23.523 C 140.94 24.509 135.546 43.723 134.268 45.12 C 133.821 45.608 130.992 45.037 127.981 43.85 C 124.971 42.664 118.611 41.064 113.85 40.296 C 91.656 36.716 76.187 44.063 76.187 58.183 C 76.187 67.623 82.986 74.021 100.531 81.089 C 115.794 87.237 128.508 93.993 133.842 98.789 C 155.939 118.655 150.001 156.036 122.732 168.726 C 118.926 170.498 112.798 172.744 109.114 173.718 C 99.834 176.172 80.872 176.763 70.606 174.92 Z"
            fill="#000000"
            stroke-width="12"/>
    </g>
</svg>
